X:1
T:Titel (500)
T:It was a lover and his lass
T:Thomas Morley (1557-1603)
T: 
T:555
C:Thomas Morley
%%score 1 2 3
L:1/8
Q:1/2=80
M:2/2
K:G
V:1 treble nm="S"
V:2 treble nm="A"
V:3 treble-8 nm="TB"
V:1
 G2 | B3 c d2 d2 | c2 B2 A2 AB | c2 cd e2 e=f | g6 =fe | d2 Bc d4- | d2 cB c2 A2 | G8 | z4 z2 (d2 | %9
w: It|was a lov- er|and his lass, With a|hey, with a ho, and a|hey non- ny|no, and a hey|* non- ny non- ny|no,|That|
w: Be-|tween the ac- res|of the rye, * *||||||These|
w: This|ca- rol they be-|gan that hour, * *||||||How|
w: Then,|pret- ty lo- vers|take the time, * *||||||For|
 d2) d2 e2 d2 | c2 B2 A2 A2 | e4 ^c2 A2 | d4 B2 d2 | g4 e2 c2 | e2 d2 c2 B2 | d4 B2 G2 | %16
w: o'er the green corn-|fields did pass, In|spring- time, in|spring- time, in|spring- time, the|on- ly pret- ty|ring- time, When|
w: pret- ty coun- try|fools did lie, *||||||
w: * that life was|but a flow'r, *||||||
w: love is crown- ed|with the prime, *||||||
 c2 B2 A2 d2 | dcBA G2 g2 | g=fed c2 e2 | edcB A2 c2 | B3 B A3 A | G2 G2 d4 | B4 z4 | z2 d2 g4 | %24
w: birds do sing Hey|ding, a- ding- a- ding, hey|ding- a- ding- a- ding, hey|ding- a- ding- a- ding, Sweet|lov- ers love the|spring, in spring-|time,|in spring-|
w: ||||||||
w: ||||||||
w: ||||||||
 e2 c2 e4 | d2 c4 B2 | d4 B2 G2 | c2 B2 A2 d2 | dcBA G2 g2 | g=fed c2 e2 | edcB A2 c2 | B3 B A3 A | %32
w: time, the on-|ly pret- ty|ring- time, when|birds do sing hey|ding- a- ding- a- ding, hey|ding- a- ding- a ding, hey|ding- a- ding- a- ding, Sweet|lov- ers love the|
w: ||||||||
w: ||||||||
w: ||||||||
 G8 |] %33
w: spring.|
w: |
w: |
w: |
V:2
 G2 | G3 A B2 A2- | A2 G4 =F2 | E2 A3 G c2- | cBGA B2 dc | BG d4 cB | A2 G3 A F2 | G6 B2 | %8
w: It|was a lov- er|* and his|lass, with a hey|* ho, non- ny no, non ny|non- ny no, with a|hey non- ny *|no, That|
w: Be-|tween the ac- res|* of the|rye, * * *||||* These|
w: This|ca- rol they be\-|* gan that|hour, * * *||||* How|
w: 4.Then,|pret- ty lo- vers|* take the|time, * * *||||* For|
 AG G4 F2 | (GA) B2 c2 (B2 | e3) d cB A2- | A2 ^G2 A4 | z2 F2 G4 | B4 z2 c2 | c2 B2 AG G2- | %15
w: o'er the green corn-|fields * did pass, that|o'er the green corn- fields|* did pass,|in spring-|time, the|on- ly pret- ty ring\-|
w: pret- ty coun- try|fools * did lie, these|pret- ty coun- try fools|* did lie,||||
w: * that life was|but * a flow'r, how|* that life was but|* a flow'r,||||
w: love is crown- ed|with * the prime, for|love is crown- ed with|* the prime||||
 (G2 F2) G2 B2 | A2 (G4 F2) | G4 g2 g=f | ed c4 c2 | cBAG F2 A2- | AG G4 F2 | G2 B2 A4 | G2 G4 F2 | %23
w: * * time, When|birds do *|sing Hey ding, a-|ding- a- ding, hey|ding- a- ding- a- ding, lov\-|* ers love the|spring, sweet lov-|ers love the|
w: ||||||||
w: ||||||||
w: ||||||||
 G4 z2 B2 | c2 c2 c4 | B2 A4 G2- | G2 F2 G2 B2 | A2 (G4 F2) | G4 g2 g=f | ed c4 c2 | cBAG F2 A2- | %31
w: spring, the|spring, the on-|ly pret- ty|* ring- time, when|birds do *|sing Hey ding- a-|ding- a- ding, hey|ding- a- ding- a- ding, lov\-|
w: ||||||||
w: ||||||||
w: ||||||||
 AG G4 F2 | G8 |] %33
w: * ers love the|spring.|
w: ||
w: ||
w: ||
V:3
 g2 | g6 (de) | f2 g2 d2 d2 | A2 AB c2 cd | e3 =f g4- | g2 GA B2 c2 | d2 g2 c2 d2 | G6 g2 | %8
w: It|was a *|lov- er and his|lass, with a hey non- ny|non- ny no,|* with a hey ho|non- ny non- ny|no, That|
w: Be-|tween the *|ac- res of the|rye, * * * * *|||||
w: This|ca- rol *|they be- gan that|hour, * * * * *|||||
w: Then,|pret- ty *|lo- vers take the|time, * * * * *|||||
 f2 g2 d4 | G2 G2 c2 g2 | a2 e2 A2 a2 | e4 A4 | z2 d2 g4 | g2 G2 c4 | c2 (de) =f2 g2 | d4 G2 g2 | %16
w: o'er the green|fields, the green corn-|fields did pass, In|spring- time,|in spring-|time, in spring-|time, the * on- ly|ring- time, When|
w: ||||||||
w: ||||||||
w: ||||||||
 f2 (g2 d4) | G2 g2 g=fed | c4 c2 c2- | c2 c2 d2 A2 | e2 g2 d4 | G2 g4 f2 | g2 G2 d4 | G4 z2 G2 | %24
w: birds do *|sing hey ding- a- ding- a-|ding, hey ding\-|* a- ding- a-|ding, Sweet lov-|ers love the|spring, in spring-|time, in|
w: ||||||||
w: ||||||||
w: ||||||||
 c4 (cd)(e=f) | g2 a2 f2 g2 | d4 G2 g2 | f2 (g2 d4) | G2 g2 g=fed | c4 c2 c2- | c2 c2 d2 A2 | %31
w: spring- time, * the *|on- ly pret- ty|ring- time, when|birds do *|sing Hey ding- a- ding- a-|ding, hey ding\-|* a- ding, Sweet|
w: |||||||
w: |||||||
w: |||||||
 e2 g2 d2 d2 | G8 |] %33
w: lov- ers love the|spring.|
w: ||
w: ||
w: ||

